X:178
T:Reel 178
M:4/4
K:Amaj
L:1/8
ED|C>A, (3A,A,A, CA,ED|C>A, (3A,A,A, E2DC|D>B, (3B,B,B, B,DB,D|F>B, (3B,B,B, F2ED|C>A, (3A,A,A, CA,ED|C>A, (3A,A,A, E2DC|DFED CA,B,G,|E,A,A,G, A,2|CB,|A,AAF AFEC|A,AAG AFEC|B,BB^A BFDC|B,BB^A BFDB,|A,AAG AFEC|A,AAG AGAB|AGBG AGFA|GAFG A2|E2|AGAF GABG|AcBG FEEC|DB,FB, B,B,BB,|DB,B^A BFDB,|AGAB AFEG|AGBG AGFE|cABG AFED|CA,B,G, A,2|
